X:107
T: HEINRICH SCHLIEF BEI SEINER NEUVERMAEHLTEN
N: B0138
O: Europa, Mitteleuropa, Deutschland, Thueringen; Hessen; Niederrhein
R: Ballade, Romanze
M: 4/4
L: 1/8
K: G
DD | G3DGGBG | GFF2z2
FG | A3BcAFD | B4z2
GG | e3dcBAG | FAd2z2
Ac | BdGBAedF | A2G4

@@@ Tune index: 1910
